flaticon/constructions/shovel-3.svg

<svg xmlns="http://www.w3.org/2000/svg" width="32" height="32" viewBox="0 0 24 24">
    <path d="M 14.078125 18 C 14.039062 18 14.039062 18 14 18 L 13.199219 18 L 13.199219 2.980469 C 13.390625 2.824219 13.5625 2.691406 13.761719 2.558594 C 14.28125 2.199219 14.800781 1.800781 14.800781 0.800781 C 14.800781 0.320312 14.480469 0 14 0 L 10 0 C 9.519531 0 9.199219 0.320312 9.199219 0.800781 C 9.199219 1.800781 9.761719 2.199219 10.28125 2.558594 C 10.441406 2.6875 10.628906 2.820312 10.800781 2.96875 L 10.800781 18 L 10 18 C 9.960938 18 9.960938 18 9.921875 18 C 9.601562 18.078125 9.199219 18.398438 9.199219 18.800781 L 9.199219 20.800781 C 9.199219 22.238281 10.160156 23.519531 11.558594 23.921875 C 11.679688 23.960938 11.839844 24 12 24 C 12.160156 24 12.320312 23.960938 12.441406 23.921875 C 13.839844 23.519531 14.800781 22.238281 14.800781 20.800781 L 14.800781 18.800781 C 14.800781 18.398438 14.359375 18.078125 14.078125 18 Z M 10 0.800781 L 14 0.800781 C 14 1.398438 13.761719 1.558594 13.28125 1.921875 C 13.078125 2.039062 12.878906 2.199219 12.640625 2.398438 L 11.359375 2.398438 C 11.160156 2.199219 10.921875 2.039062 10.71875 1.878906 C 10.238281 1.558594 10 1.398438 10 0.800781 Z M 11.601562 3.199219 L 12.398438 3.199219 L 12.398438 18 L 11.601562 18 Z M 14 20.800781 C 14 21.878906 13.28125 22.839844 12.238281 23.160156 C 12.078125 23.199219 11.960938 23.199219 11.800781 23.160156 C 10.71875 22.839844 10 21.878906 10 20.800781 L 10 18.878906 C 10.039062 18.839844 10.039062 18.800781 10.078125 18.800781 L 13.921875 18.800781 C 13.960938 18.800781 14 18.800781 14 18.839844 Z M 14 20.800781"/>
</svg>

<svg xmlns="http://www.w3.org/2000/svg" width="32" height="32" viewBox="0 0 24 24">
    <path d="M14.078 18H13.2V2.98c.19-.156.363-.289.562-.421C14.282 2.199 14.8 1.8 14.8.8 14.8.32 14.48 0 14 0h-4c-.48 0-.8.32-.8.8 0 1 .562 1.4 1.081 1.759.16.128.348.261.52.41V18h-.879c-.32.078-.723.398-.723.8v2a3.26 3.26 0 0 0 2.36 3.122c.12.039.28.078.441.078.16 0 .32-.04.441-.078a3.26 3.26 0 0 0 2.36-3.121v-2c0-.403-.442-.723-.723-.801zM10 .8h4c0 .598-.238.759-.719 1.122a4.723 4.723 0 0 0-.64.476h-1.282c-.199-.199-.437-.359-.64-.52-.48-.32-.719-.48-.719-1.077zm1.602 2.4h.796V18h-.796zM14 20.8c0 1.079-.719 2.04-1.762 2.36a.831.831 0 0 1-.437 0C10.719 22.84 10 21.88 10 20.8V18.88c.04-.04.04-.078.078-.078h3.844c.039 0 .078 0 .078.039zm0 0"/>
</svg>
